dist/flags/m/600.svg

<svg width="20" height="15" viewBox="0 0 20 15" fill="none" xmlns="http://www.w3.org/2000/svg">
<mask id="mask0" mask-type="alpha" maskUnits="userSpaceOnUse" x="0" y="0" width="20" height="15">
<rect width="20" height="15" fill="white"/>
</mask>
<g mask="url(#mask0)">
<path fill-rule="evenodd" clip-rule="evenodd" d="M0 0V15H20V0H0Z" fill="#F7FCFF"/>
<mask id="mask1" mask-type="alpha" maskUnits="userSpaceOnUse" x="0" y="0" width="20" height="15">
<path fill-rule="evenodd" clip-rule="evenodd" d="M0 0V15H20V0H0Z" fill="white"/>
</mask>
<g mask="url(#mask1)">
<path d="M12.1875 7.5C12.1875 8.70812 11.2081 9.6875 10 9.6875C8.79188 9.6875 7.8125 8.70812 7.8125 7.5C7.8125 6.29188 8.79188 5.3125 10 5.3125C11.2081 5.3125 12.1875 6.29188 12.1875 7.5Z" stroke="#272727" stroke-width="0.625"/>
<path fill-rule="evenodd" clip-rule="evenodd" d="M0 0V5H20V0H0Z" fill="#F05234"/>
<path fill-rule="evenodd" clip-rule="evenodd" d="M0 10V15H20V10H0Z" fill="#3D58DB"/>
<path d="M9.17375 6.35999C9.17375 6.35999 8.46987 6.84728 8.72306 7.79217C8.97624 8.73705 9.96305 8.77133 9.96305 8.77133" stroke="#73BE4A" stroke-width="0.625"/>
<path d="M10.7298 6.35999C10.7298 6.35999 11.4336 6.84728 11.1804 7.79217C10.9273 8.73705 9.94046 8.77133 9.94046 8.77133" stroke="#73BE4A" stroke-width="0.625"/>
<path fill-rule="evenodd" clip-rule="evenodd" d="M10.0015 7.96704C10.3467 7.96704 10.6265 7.68722 10.6265 7.34204C10.6265 6.99686 10.3467 6.71704 10.0015 6.71704C9.65635 6.71704 9.37653 6.99686 9.37653 7.34204C9.37653 7.68722 9.65635 7.96704 10.0015 7.96704Z" fill="#FBCD17"/>
</g>
</g>
</svg>

<svg width="20" height="15" fill="none" xmlns="http://www.w3.org/2000/svg">
  <mask id="a" maskUnits="userSpaceOnUse" x="0" y="0" width="20" height="15">
    <path fill="#fff" d="M0 0h20v15H0z"/>
  </mask>
  <g mask="url(#a)">
    <path fill-rule="evenodd" clip-rule="evenodd" d="M0 0v15h20V0H0z" fill="#F7FCFF"/>
    <mask id="b" maskUnits="userSpaceOnUse" x="0" y="0" width="20" height="15">
      <path fill-rule="evenodd" clip-rule="evenodd" d="M0 0v15h20V0H0z" fill="#fff"/>
    </mask>
    <g mask="url(#b)">
      <path d="M12.188 7.5a2.188 2.188 0 11-4.376 0 2.188 2.188 0 014.375 0z" stroke="#272727" stroke-width=".625"/>
      <path fill-rule="evenodd" clip-rule="evenodd" d="M0 0v5h20V0H0z" fill="#F05234"/>
      <path fill-rule="evenodd" clip-rule="evenodd" d="M0 10v5h20v-5H0z" fill="#3D58DB"/>
      <path d="M9.174 6.36s-.704.487-.45 1.432c.252.945 1.24.98 1.24.98" stroke="#73BE4A" stroke-width=".625"/>
      <path d="M10.73 6.36s.704.487.45 1.432c-.253.945-1.24.98-1.24.98" stroke="#73BE4A" stroke-width=".625"/>
      <path fill-rule="evenodd" clip-rule="evenodd" d="M10.002 7.967a.625.625 0 100-1.25.625.625 0 000 1.25z" fill="#FBCD17"/>
    </g>
  </g>
</svg>
